X: 211
M: C|
L: 1/8
K: A
V: 1
E |\
|: e |\
e>fe>=g f>dB>d | e>cA>c B>GE>A | F>AE>A D>A C>e | f>d Bg aAA :|
V: 2 clef=bass middle=d
z |\
a2[a2c'2] [a2c'2][a2c'2] | d'2d2 a2e2 | a2A2 a2^d2 | eg bB e2E :|
|: z |\


